icons/pencil-ai-24.svg

<svg width="24" height="24" viewBox="0 0 24 24" fill="none" xmlns="http://www.w3.org/2000/svg">
<path fill-rule="evenodd" clip-rule="evenodd" d="M17.2626 2.17678C17.946 1.49336 19.054 1.49336 19.7375 2.17678L22.3232 4.76257C23.0067 5.44598 23.0067 6.55402 22.3232 7.23744L19.5303 10.0303L19.5179 10.0425L8.68981 20.3784C8.49198 20.5672 8.25264 20.7071 7.99101 20.7867L2.46839 22.4675C2.20341 22.5482 1.91555 22.4762 1.71969 22.2803C1.52383 22.0845 1.45187 21.7966 1.53251 21.5316L3.20612 16.0327C3.29376 15.7447 3.45421 15.4842 3.67196 15.2763L14.4759 4.9635L17.2626 2.17678ZM14.9878 6.54847L4.70768 16.3613C4.67657 16.391 4.65365 16.4283 4.64113 16.4694L3.37697 20.6231L7.55426 19.3517C7.59164 19.3403 7.62583 19.3203 7.65409 19.2934L17.9269 9.48753L14.9878 6.54847ZM19 8.43934L21.2626 6.17678C21.3602 6.07915 21.3602 5.92086 21.2626 5.82323L18.6768 3.23744C18.5792 3.13981 18.4209 3.13981 18.3232 3.23744L16.0607 5.5L19 8.43934Z" fill="black"/>
<path d="M18.7066 14.8015C18.8067 14.5281 19.1934 14.5281 19.2935 14.8015L19.5922 15.6175C20.0664 16.9129 21.0871 17.9336 22.3825 18.4078L23.1985 18.7065C23.4719 18.8066 23.4719 19.1933 23.1985 19.2934L22.3825 19.5922C21.0871 20.0664 20.0664 21.0871 19.5922 22.3824L19.2935 23.1984C19.1934 23.4719 18.8067 23.4719 18.7066 23.1984L18.4078 22.3824C17.9336 21.0871 16.9129 20.0664 15.6176 19.5922L14.8016 19.2934C14.5281 19.1933 14.5281 18.8066 14.8016 18.7065L15.6176 18.4078C16.9129 17.9336 17.9336 16.9129 18.4078 15.6175L18.7066 14.8015Z" fill="black"/>
</svg>

<svg xmlns="http://www.w3.org/2000/svg" width="24" height="24" viewBox="0 0 24 24"><path d="M17.263 2.177a1.748 1.748 0 0 1 2.474 0l2.586 2.586a1.748 1.748 0 0 1 0 2.474L19.53 10.03l-.012.012L8.69 20.378a1.753 1.753 0 0 1-.699.409l-5.523 1.681a.75.75 0 0 1-.935-.936l1.673-5.499c.088-.288.248-.549.466-.757L14.476 4.964Zm-2.275 4.371-10.28 9.813a.26.26 0 0 0-.067.108l-1.264 4.154 4.177-1.271a.253.253 0 0 0 .1-.059l10.273-9.805ZM19 8.439l2.263-2.262a.252.252 0 0 0 0-.354l-2.586-2.586a.252.252 0 0 0-.354 0L16.061 5.5Zm-.293 6.363a.312.312 0 0 1 .587 0l.298.815a4.685 4.685 0 0 0 2.791 2.791l.815.298a.312.312 0 0 1 0 .587l-.815.299a4.686 4.686 0 0 0-2.791 2.79l-.298.816a.312.312 0 0 1-.587 0l-.299-.816a4.687 4.687 0 0 0-2.79-2.79l-.816-.299a.312.312 0 0 1 0-.587l.816-.298a4.686 4.686 0 0 0 2.79-2.791l.299-.815Z"/></svg>
